X: 34574
T: Rising Of The Lark, The
R: barndance
M: 4/4
K: Dmajor
|:d4 A3 G|F2 d2 A2 F2|G2 A2 B2 c2|
d2 c2 d2 e2|f d3 A3 c|d4d2 z2:|
f3 e d2 f2|e3 d c2 e2|d3 c B2 d2|c2 B2 A2 e2|
f3 e d2 f2|e3 d c2 e2|d3 c B2 d2|c2 B2 A2 F2|
G2 A2 B2 c2|d2 c2 d2 e2|f d3 A3 c|d4d2 z2|

